storage/app/icons/phosphoricons/light/television-light.svg

<svg xmlns="http://www.w3.org/2000/svg" fill="currentColor" viewBox="0 0 256 256"><path d="M216 66h-73.52l37.76-37.76a6 6 0 0 0-8.48-8.48L128 63.51 84.24 19.76a6 6 0 1 0-8.48 8.48L113.52 66H40a14 14 0 0 0-14 14v120a14 14 0 0 0 14 14h176a14 14 0 0 0 14-14V80a14 14 0 0 0-14-14M38 200V80a2 2 0 0 1 2-2h106v124H40a2 2 0 0 1-2-2m180 0a2 2 0 0 1-2 2h-58V78h58a2 2 0 0 1 2 2Zm-20-84a10 10 0 1 1-10-10 10 10 0 0 1 10 10m0 48a10 10 0 1 1-10-10 10 10 0 0 1 10 10"/></svg>

<svg xmlns="http://www.w3.org/2000/svg" viewBox="0 0 256 256" fill="currentColor"><path d="M216,66H142.48l37.76-37.76a6,6,0,0,0-8.48-8.48L128,63.51,84.24,19.76a6,6,0,1,0-8.48,8.48L113.52,66H40A14,14,0,0,0,26,80V200a14,14,0,0,0,14,14H216a14,14,0,0,0,14-14V80A14,14,0,0,0,216,66ZM38,200V80a2,2,0,0,1,2-2H146V202H40A2,2,0,0,1,38,200Zm180,0a2,2,0,0,1-2,2H158V78h58a2,2,0,0,1,2,2Zm-20-84a10,10,0,1,1-10-10A10,10,0,0,1,198,116Zm0,48a10,10,0,1,1-10-10A10,10,0,0,1,198,164Z"/></svg>
